Origami/24x24/apps/boinc.svg

<svg width="24" height="24" version="1" xmlns="http://www.w3.org/2000/svg">
 <path d="m2.0059 12.250026c-0.00205 0.083499-0.00585 0.165999-0.00585 0.249999 0 5.539986 4.4599888 9.999975 9.999975 9.999975 5.539986 0 9.999975-4.459989 9.999975-9.999975 0-0.084-4e-3 -0.1665-6e-3 -0.249999-0.132 5.422986-4.537989 9.749975-9.993975 9.749975-5.4559864 0-9.8619753-4.326989-9.993975-9.749975z" style="opacity:.2"/>
 <path d="m11.999975 2.0000512c-5.5399861 0-9.999975 4.4599889-9.999975 9.9999748 0 5.539986 4.4599889 9.999975 9.999975 9.999975 5.539986 0 9.999975-4.459989 9.999975-9.999975 0-5.5399859-4.459989-9.9999748-9.999975-9.9999748z" style="fill:#154277"/>
 <path d="m17.840781 4.3838343-1.510739 2.6171809-1.016599 1.7607381a4.9999875 4.9999875 0 0 1 1.68652 3.7382717 4.9999875 4.9999875 0 0 1 -0.261719 1.581051l1.758785 1.015622a6.9999825 6.9999825 0 0 0 0.502929 -2.596673 6.9999825 6.9999825 0 0 0 -1.240232 -3.9745996l1.607418-2.7841725c-0.461248-0.5027807-0.971124-0.9579274-1.526363-1.3574186zm-12.599578 0.7490216c-0.5027808 0.4612479-0.9579274 0.9711246-1.3574186 1.5263632l2.6171809 1.5107387 1.7607381 1.016599a4.9999875 4.9999875 0 0 1 3.7382717 -1.6865193 4.9999875 4.9999875 0 0 1 1.581051 0.2617183l1.015622-1.7587851a6.9999825 6.9999825 0 0 0 -2.596673 -0.5029282 6.9999825 6.9999825 0 0 0 -3.9745996 1.2402314l-2.7841725-1.607418zm0.2617178 4.7704961a6.9999825 6.9999825 0 0 0 -0.5029282 2.596673 6.9999825 6.9999825 0 0 0 1.2402314 3.9746l-1.4306606 2.477532c0.471702 0.487886 0.9890352 0.930771 1.5517538 1.31445l1.3085907-2.267572 1.016599-1.760738a4.9999875 4.9999875 0 0 1 -1.6865193 -3.738272 4.9999875 4.9999875 0 0 1 0.2617183 -1.581051l-1.7587851-1.015622zm10.235326 5.910141a4.9999875 4.9999875 0 0 1 -3.738272 1.686519 4.9999875 4.9999875 0 0 1 -1.581051 -0.261718l-1.015622 1.758785a6.9999825 6.9999825 0 0 0 2.596673 0.502928 6.9999825 6.9999825 0 0 0 3.9746 -1.240231l2.447259 1.413083c0.528523-0.442311 1.005783-0.940767 1.432613-1.482419l-2.355462-1.360348-1.760738-1.016599z" style="opacity:.2"/>
 <path d="m17.840781 3.8838356-1.510739 2.6171809-1.016599 1.7607381a4.9999875 4.9999875 0 0 1 1.68652 3.7382714 4.9999875 4.9999875 0 0 1 -0.261719 1.581051l1.758785 1.015622a6.9999825 6.9999825 0 0 0 0.502929 -2.596673 6.9999825 6.9999825 0 0 0 -1.240232 -3.9745993l1.607418-2.7841726c-0.461248-0.5027807-0.971124-0.9579273-1.526363-1.3574185zm-12.599578 0.7490216c-0.5027808 0.4612478-0.9579274 0.9711245-1.3574186 1.5263632l2.6171809 1.5107387 1.7607381 1.0165989a4.9999875 4.9999875 0 0 1 3.7382717 -1.6865193 4.9999875 4.9999875 0 0 1 1.581051 0.2617184l1.015622-1.7587851a6.9999825 6.9999825 0 0 0 -2.596673 -0.5029283 6.9999825 6.9999825 0 0 0 -3.9745996 1.2402314l-2.7841725-1.6074179zm0.2617178 4.770496a6.9999825 6.9999825 0 0 0 -0.5029282 2.5966728 6.9999825 6.9999825 0 0 0 1.2402314 3.9746l-1.607418 2.784172c0.4612479 0.502781 0.9711246 0.957928 1.5263632 1.357419l1.5107387-2.617181 1.016599-1.760738a4.9999875 4.9999875 0 0 1 -1.6865193 -3.738272 4.9999875 4.9999875 0 0 1 0.2617183 -1.58105l-1.7587851-1.0156228zm10.235326 5.9101408a4.9999875 4.9999875 0 0 1 -3.738272 1.68652 4.9999875 4.9999875 0 0 1 -1.581051 -0.261719l-1.015622 1.758786a6.9999825 6.9999825 0 0 0 2.596673 0.502928 6.9999825 6.9999825 0 0 0 3.9746 -1.240232l2.784172 1.607418c0.502781-0.461248 0.957928-0.971124 1.357419-1.526363l-2.617181-1.510739-1.760738-1.016599z" style="fill:#5286fe"/>
 <path d="m11.999975 2.0000512c5.534986 0 9.990975 4.4599889 9.990975 9.9999748 0 0.08394-4e-3 0.16657-0.0058 0.25-0.132-5.4229868-4.533989-9.749976-9.984975-9.749976-5.4509864 0-9.8529754 4.3269892-9.984975 9.749976-2e-3 -0.08343-0.00584-0.166065-0.00584-0.25 0-5.5399859 4.4559388-9.9999748 9.9909745-9.9999748z" style="fill:#ffffff;opacity:.1"/>
 <circle cx="12" cy="12.5" r="3" style="opacity:.2"/>
 <circle cx="12" cy="12" r="3" style="fill:#f5ca4a"/>
</svg>

<svg xmlns="http://www.w3.org/2000/svg" width="24" height="24" version="1">
 <path style="opacity:0.2" d="M 2.0059,12.250026 C 2.00385,12.333525 2.00005,12.416025 2.00005,12.500025 2.00005,18.040011 6.4600388,22.5 12.000025,22.5 17.540011,22.5 22,18.040011 22,12.500025 c 0,-0.084 -0.004,-0.1665 -0.006,-0.249999 -0.132,5.422986 -4.537989,9.749975 -9.993975,9.749975 -5.4559864,0 -9.8619753,-4.326989 -9.993975,-9.749975 z"/>
 <path style="fill:#154277" d="M 11.999975,2.0000512 C 6.4599889,2.0000512 2,6.4600401 2,12.000026 c 0,5.539986 4.4599889,9.999975 9.999975,9.999975 5.539986,0 9.999975,-4.459989 9.999975,-9.999975 0,-5.5399859 -4.459989,-9.9999748 -9.999975,-9.9999748 z"/>
 <path style="opacity:0.2" d="m 17.840781,4.3838343 -1.510739,2.6171809 -1.016599,1.7607381 a 4.9999875,4.9999875 0 0 1 1.68652,3.7382717 4.9999875,4.9999875 0 0 1 -0.261719,1.581051 l 1.758785,1.015622 A 6.9999825,6.9999825 0 0 0 18.999958,12.500025 6.9999825,6.9999825 0 0 0 17.759726,8.5254254 L 19.367144,5.7412529 C 18.905896,5.2384722 18.39602,4.7833255 17.840781,4.3838343 Z M 5.2412029,5.1328559 C 4.7384221,5.5941038 4.2832755,6.1039805 3.8837843,6.6592191 l 2.6171809,1.5107387 1.7607381,1.016599 A 4.9999875,4.9999875 0 0 1 11.999975,7.5000375 4.9999875,4.9999875 0 0 1 13.581026,7.7617558 L 14.596648,6.0029707 A 6.9999825,6.9999825 0 0 0 11.999975,5.5000425 6.9999825,6.9999825 0 0 0 8.0253754,6.7402739 L 5.2412029,5.1328559 Z M 5.5029207,9.903352 a 6.9999825,6.9999825 0 0 0 -0.5029282,2.596673 6.9999825,6.9999825 0 0 0 1.2402314,3.9746 l -1.4306606,2.477532 c 0.471702,0.487886 0.9890352,0.930771 1.5517538,1.31445 l 1.3085907,-2.267572 1.016599,-1.760738 A 4.9999875,4.9999875 0 0 1 6.9999875,12.500025 4.9999875,4.9999875 0 0 1 7.2617058,10.918974 L 5.5029207,9.903352 Z m 10.2353263,5.910141 a 4.9999875,4.9999875 0 0 1 -3.738272,1.686519 4.9999875,4.9999875 0 0 1 -1.581051,-0.261718 l -1.015622,1.758785 a 6.9999825,6.9999825 0 0 0 2.596673,0.502928 6.9999825,6.9999825 0 0 0 3.9746,-1.240231 l 2.447259,1.413083 c 0.528523,-0.442311 1.005783,-0.940767 1.432613,-1.482419 l -2.355462,-1.360348 -1.760738,-1.016599 z"/>
 <path style="fill:#5286fe" d="m 17.840781,3.8838356 -1.510739,2.6171809 -1.016599,1.7607381 a 4.9999875,4.9999875 0 0 1 1.68652,3.7382714 4.9999875,4.9999875 0 0 1 -0.261719,1.581051 l 1.758785,1.015622 A 6.9999825,6.9999825 0 0 0 18.999958,12.000026 6.9999825,6.9999825 0 0 0 17.759726,8.0254267 L 19.367144,5.2412541 C 18.905896,4.7384734 18.39602,4.2833268 17.840781,3.8838356 Z M 5.2412029,4.6328572 C 4.7384221,5.094105 4.2832755,5.6039817 3.8837843,6.1592204 L 6.5009652,7.6699591 8.2617033,8.686558 A 4.9999875,4.9999875 0 0 1 11.999975,7.0000387 4.9999875,4.9999875 0 0 1 13.581026,7.2617571 L 14.596648,5.502972 A 6.9999825,6.9999825 0 0 0 11.999975,5.0000437 6.9999825,6.9999825 0 0 0 8.0253754,6.2402751 L 5.2412029,4.6328572 Z m 0.2617178,4.770496 a 6.9999825,6.9999825 0 0 0 -0.5029282,2.5966728 6.9999825,6.9999825 0 0 0 1.2402314,3.9746 l -1.607418,2.784172 c 0.4612479,0.502781 0.9711246,0.957928 1.5263632,1.357419 l 1.5107387,-2.617181 1.016599,-1.760738 A 4.9999875,4.9999875 0 0 1 6.9999875,12.000026 4.9999875,4.9999875 0 0 1 7.2617058,10.418976 L 5.5029207,9.4033532 Z M 15.738247,15.313494 a 4.9999875,4.9999875 0 0 1 -3.738272,1.68652 4.9999875,4.9999875 0 0 1 -1.581051,-0.261719 l -1.015622,1.758786 a 6.9999825,6.9999825 0 0 0 2.596673,0.502928 6.9999825,6.9999825 0 0 0 3.9746,-1.240232 l 2.784172,1.607418 c 0.502781,-0.461248 0.957928,-0.971124 1.357419,-1.526363 l -2.617181,-1.510739 -1.760738,-1.016599 z"/>
 <path style="opacity:0.1;fill:#ffffff" d="m 11.999975,2.0000512 c 5.534986,0 9.990975,4.4599889 9.990975,9.9999748 0,0.08394 -0.004,0.16657 -0.0058,0.25 -0.132,-5.4229868 -4.533989,-9.749976 -9.984975,-9.749976 -5.4509864,0 -9.8529754,4.3269892 -9.984975,9.749976 -0.002,-0.08343 -0.00584,-0.166065 -0.00584,-0.25 0,-5.5399859 4.4559388,-9.9999748 9.9909745,-9.9999748 z"/>
 <circle style="opacity:0.2" cx="12" cy="12.5" r="3"/>
 <circle style="fill:#f5ca4a" cx="12" cy="12" r="3"/>
</svg>
